X:1
T:The Jug of Punch
M:3/4
L:1/8
K:F
 c| cBA A2 G| FF F2E-F| GG G2 FG| AA A3 B| cc c2| BA| dB G2 AB| cc d2 dc|\
 AG F2 cB| AA A2 AG| FF F2| EF| GG G2 FG| AA A3 B| cc c2 BA| dB G2 AB|\
 cc d2| dB| AG F3||
